X: 45
T:Paddy Fahey's
R:Reel
S:Josie Nugent,Clare (fiddle)
D:Private tape
H:First part only
N:As played
M:4/4
Z:Bernie Stocks
K:G
dc || A {dBA}B2d c2dc | BGGF DE{G}FD | GABd {cB}c2dc | {dBA}B2 AF DG+G2G,2+ |
A {dBA}B2d {cB}c2dc | BG{A}GF DE{G}=FD | GABd {cB}c2dc | {dBA}B2 AF DG+G2G,2+ ||
<end>
<start>
